X:1
T:Title
%%score { ( 1 3 5 ) | ( 2 4 6 ) }
L:1/8
M:4/4
K:Ab
V:1 treble nm="Grand Piano"
V:3 treble 
V:5 treble 
V:2 bass 
V:4 bass 
V:6 bass 
V:1
 z4 z2[Q:1/4=100] [A,CA]>[DB] | [Ec]>[Ec] [DB]>[Ec] [CA]2 [CA]>[EA] | [FB]>[FA] [EG]>F E2 E>A | %3
 B4 z4 | c6 z2 | [Ec]>[Ec] [DB]>[Ec] [CA]2 [CA]>[EA] | [FB]>[FA] [EG]>F E2 E>A | B4 z4 | %8
[M:3/4] A6 |[M:1/4] c>d |[M:4/4] e6 z2 | c4 z4 | G>[Ge] [Ge]>[Ae] [Be]2 [Gd]>[GB] | %13
 [EG]>[DE] [CA]>[DB] c2 c>d | e6 z2 | c4 [EA]2 z2 | [Ac]2- [EA-c-]>[EA-c-] [EAc]>B A>G | %17
[M:3/4] [CEA]6 |] %18
V:2
 z4 z2 G,,>[A,,A,] | [A,,A,]>[A,,A,] [A,,A,]>[A,,A,] [A,,A,]2 [A,,A,]>[A,,A,] | %2
 [D,A,]>[D,A,] [D,A,]>[D,A,D] [A,C]2 C>C | E4 z4 | E6 z2 | %5
 [A,,A,]>[A,,A,] [A,,A,]>[A,,A,] [A,,A,]2 [A,,A,]>[C,A,] | %6
 [D,A,]>[D,A,] [D,A,]>[D,A,D] [A,C]2 C>C | E4 z4 |[M:3/4] C6 |[M:1/4][K:treble] A>B | %10
[M:4/4] c6 z2 | A4[K:bass] z4 | [E,B,E]>[E,B,] [E,B,]>[E,C] [E,D]2 [E,B,]>[E,B,] | %13
 [E,B,]>[E,B,] [A,,A,]>[A,,A,][K:treble] [A,E]2 A>B | c6 z2 | A4[K:bass] z4 | %16
 E,2 E,>E, E,>[E,DE] [E,CE]>[E,B,E] |[M:3/4] [A,,A,]6 |] %18
V:3
 x8 | x8 | x8 | z2 G,>G, E2 A>B | z2 A,>A, A,2 [CA]>[DB] | x8 | x8 | z2 G,>G, E2 c>B | %8
[M:3/4] z2 A,>A, A,2 |[M:1/4] x2 |[M:4/4] z2 E>E z z/ c/ d>e | z z/ E/ E>E A2 B>A | x8 | x8 | %14
 z2 E>E E>c d>e | z2 E>E C>C [DFB]>[FBd] | E2 z2 z4 |[M:3/4] x6 |] %18
V:4
 x8 | x8 | x8 | z2 E,>E, [E,G,]2 C>D | z2 A,,>A,, A,,2 [A,,A,]>[A,,A,] | x8 | x8 | %7
 z2 E,>E, [E,G,]2 E>D |[M:3/4] z2 A,,>A,, A,,2 |[M:1/4][K:treble] x2 | %10
[M:4/4] z2 A,>A, z z/ A/ B>c | z z/[K:bass] A,/ A,>A, [A,CE]2 [E,DE]>[E,CE] | x8 | %13
 x4[K:treble] x4 | z2 A,>A, A,>[A,EA] B>c | z2[K:bass] A,>A, A,>A, D,>D, | x8 |[M:3/4] x6 |] %18
V:5
 x8 | x8 | x8 | x8 | x8 | x8 | x8 | x8 |[M:3/4] x6 |[M:1/4] x2 |[M:4/4] z4 E2 z2 | x8 | x8 | x8 | %14
 x8 | x8 | x8 |[M:3/4] x6 |] %18
V:6
 x8 | x8 | x8 | x8 | x8 | x8 | x8 | x8 |[M:3/4] x6 |[M:1/4][K:treble] x2 |[M:4/4] z4 A,2 z2 | %11
 x3/2[K:bass] x13/2 | x8 | x4[K:treble] x4 | x8 | x2[K:bass] x6 | x8 |[M:3/4] x6 |] %18

